X:655
T:Pigeon on the Gate, The
R:reel
H:See also #140, #141, #532, #653, #654, #656
N:I have rewritten the notation a bit.
B:Ceol Rince na hEireann 2, 250(i). A version from Sonny McDonagh, Co. Sligo.
Z:id:hn-reel-655
M:C|
K:Ador
(3Bcd|eA~A2 egfd|eA~A2 edBd|eA~A2 egfa|gedB GABd|
eA~A2 egfg|eA~A2 edBd|eA~A2 egf2|{a}gedB GABd||
ea~a2 b2ag|eaaf {a}ged2|ea~a2 b2ag|egdB GABd|
ea~a2 b2ag|eaaf {a}g3a|b2bg abag|ea{b}ag ed||
